X:1
T:Title
%%score { ( 1 3 5 ) | ( 2 4 ) }
L:1/8
M:3/4
K:Db
V:1 treble nm="Grand Piano"
V:3 treble 
V:5 treble 
V:2 bass 
V:4 bass 
V:1
 z2 z[Q:1/4=90] D F>[EG] | [FA]3 D GB | A4 A2 | [CA]3 [CB] [CG][CA] |[M:3/8] [DF]3 | %5
 [FA][Fd]>[Fd] |[M:3/4] [Fd]3 [FA] [_FB][Fd] | [FA]4 [FA]2 |[M:7/8] [EA][Ac] [=Ge]3 [DEG]2 | %9
[M:3/8] [CEA]3 | Ac>c | %11
[M:27/32] c/4-c/4-c/4-c/4-c/4-c/4-c/4-c/4-c/-<c/c/-<c/[Ad]/4-[Ad]/4-[Ad]/4-[Ad]/4-[Ad]/-<[Ad]/[Ad]3/4 | %12
[M:3/4] (7:8:7B3/4-B3/2-B3/8d3/4c-c/8B3/4 | z z/ A/- A/4 z/4 z/ z z2 | %14
 (7:8:7[A,FA]3/4-[A,FA]3/2-[A,FA]3/8[DAd]3/4[DAc]-[DAc]/8B3/4 |[M:7/8] z z/ c/-c/4 z/4 z/ z e3- | %16
[M:9/16] e3/4 z/4 z/ z3/2 z3/2 |] %17
V:2
 z2 z [D,F,] [D,A,D]>[D,A,] | [D,D]3 [D,F,] [D,B,D][D,G,D] | [D,F,D]4 [D,F,D]2 | %3
 [A,,E,]3 [A,,E,] [A,,A,][A,,A,] |[M:3/8] [D,A,]3 | [D,A,][D,A,]>[D,A,] | %6
[M:3/4] [D,A,]3 [D,A,] [D,=G,][D,G,] | [D,A,]4 [D,D]2 |[M:7/8] [E,C][E,E] [E,B,]3 E,2 | %9
[M:3/8] A,,3 | [A,C][A,EG]>[A,EG] | %11
[M:27/32] [A,EG]/4-[A,EG]/4-[A,EG]/4-[A,EG]/4-[A,EG]/4-[A,EG]/4-[A,EG]/4-[A,EG]/4-[A,EG]/-<[A,EG]/[A,EG]/-<[A,EG]/[K:bass][F,D]/4-[F,D]/4-[F,D]/4-[F,D]/4-[F,D]/-<[F,D]/[F,D]3/4 | %12
[M:3/4][K:treble] (7:8:7[G,DG]3/4-[G,DG]3/2-[G,DG]3/8[=G,B,_F]3/4[G,CF]-[G,CF]/8[G,DF]3/4 | %13
 (3:2:2F2 [A,DF][K:bass] z2 z2 | (7:8:7D,3/4-D,3/2-D,3/8F,3/4G,-G,/8[K:treble][G,DG]3/4 | %15
[M:7/8] z z/[K:bass] [A,G]/ [CG]2 C- C/4 z/4 z/ z |[M:9/16] z9/2 |] %17
V:3
 x6 | x6 | x6 | x6 |[M:3/8] x3 | x3 |[M:3/4] x6 | x6 |[M:7/8] x7 |[M:3/8] x3 | x3 | %11
[M:27/32] x27/4 |[M:3/4] x6 | (3A3 A3 [EGA]3 | x6 |[M:7/8] c2 z z z z2 |[M:9/16] [Fd]4- [Fd]/ |] %17
V:4
 x6 | x6 | x6 | x6 |[M:3/8] x3 | x3 |[M:3/4] x6 | x6 |[M:7/8] x7 |[M:3/8] x3 | x3 | %11
[M:27/32] x4[K:bass] x11/4 |[M:3/4][K:treble] x6 | (3[A,D]3[K:bass] [A,CE]3 A,,3 | %14
 x5[K:treble] x55/64 |[M:7/8] [A,G]>[K:bass]E-[A,-E]/<A,/- A,-[A,,-A,G-]/<[A,,G]/- [A,,G]2- | %16
[M:9/16] [A,,D,-A,-G]3/4[D,A,]3/4- [D,A,]3 |] %17
V:5
 x6 | x6 | x6 | x6 |[M:3/8] x3 | x3 |[M:3/4] x6 | x6 |[M:7/8] x7 |[M:3/8] x3 | x3 | %11
[M:27/32] x27/4 |[M:3/4] x6 | x6 | x6 |[M:7/8] z2 A2- A/4 z/4 z/ A,2- | %16
[M:9/16] A,3/4 z/4 z/ z3/2 z3/2 |] %17

